svg/tag_minus.svg

<svg xmlns="http://www.w3.org/2000/svg" viewBox="0 0 24 24"><path d="m21.41 11.58-9-9C12.04 2.21 11.53 2 11 2H4a2 2 0 0 0-2 2v7c0 .53.21 1.04.59 1.41l.41.4c.9-.54 1.94-.81 3-.81a6 6 0 0 1 6 6c0 1.06-.28 2.09-.82 3l.4.4c.37.38.89.6 1.42.6s1.04-.21 1.41-.59l7-7c.38-.37.59-.88.59-1.41s-.21-1.04-.59-1.42M5.5 7A1.5 1.5 0 0 1 4 5.5 1.5 1.5 0 0 1 5.5 4 1.5 1.5 0 0 1 7 5.5 1.5 1.5 0 0 1 5.5 7M10 19H2v-2h8z"/></svg>

<?xml version="1.0" encoding="UTF-8"?><!DOCTYPE svg PUBLIC "-//W3C//DTD SVG 1.1//EN" "http://www.w3.org/Graphics/SVG/1.1/DTD/svg11.dtd"><svg xmlns="http://www.w3.org/2000/svg" xmlns:xlink="http://www.w3.org/1999/xlink" version="1.1" id="mdi-tag-minus" width="24" height="24" viewBox="0 0 24 24"><path d="M21.41,11.58L12.41,2.58C12.04,2.21 11.53,2 11,2H4A2,2 0 0,0 2,4V11C2,11.53 2.21,12.04 2.59,12.41L3,12.81C3.9,12.27 4.94,12 6,12A6,6 0 0,1 12,18C12,19.06 11.72,20.09 11.18,21L11.58,21.4C11.95,21.78 12.47,22 13,22C13.53,22 14.04,21.79 14.41,21.41L21.41,14.41C21.79,14.04 22,13.53 22,13C22,12.47 21.79,11.96 21.41,11.58M5.5,7A1.5,1.5 0 0,1 4,5.5A1.5,1.5 0 0,1 5.5,4A1.5,1.5 0 0,1 7,5.5A1.5,1.5 0 0,1 5.5,7M10,19H2V17H10V19Z" /></svg>
